Sources/FrostedUI/Resources/Icons.xcassets/happyFaceFilled32.imageset/happy-face-filled-32.svg

<svg width="32" height="32" viewBox="0 0 32 32" fill="none" xmlns="http://www.w3.org/2000/svg" data-fui-icon="true">
  <g clip-path="url(#clip0_6205_239)">
    <path
      d="M16 0C24.9142 1.6867e-05 32 7.08581 32 16C32 24.9142 24.9142 32 16 32C7.08584 32 4.04299e-06 24.9142 0 16C0 7.0858 7.08584 1.71829e-05 16 0ZM21.835 20.3291C21.4657 20.1447 21.0173 20.2933 20.8311 20.6611V20.6621C20.8307 20.6628 20.8298 20.6637 20.8291 20.665V20.666C20.8279 20.6683 20.8253 20.6709 20.8232 20.6748C20.8157 20.6887 20.8025 20.7128 20.7832 20.7451C20.7446 20.81 20.6821 20.9083 20.5947 21.0293C20.4195 21.2719 20.1462 21.6011 19.7617 21.9307C19.0007 22.5829 17.7939 23.25 16 23.25C14.2061 23.25 12.9993 22.5829 12.2383 21.9307C11.8538 21.6011 11.5805 21.2719 11.4053 21.0293C11.3179 20.9083 11.2554 20.81 11.2168 20.7451C11.1975 20.7128 11.1843 20.6887 11.1768 20.6748C11.1744 20.6705 11.1721 20.6674 11.1709 20.665H11.1699C11.1693 20.6639 11.1693 20.6627 11.1689 20.6621V20.6611C10.9827 20.2933 10.5343 20.1447 10.165 20.3291C9.79469 20.5143 9.64416 20.9646 9.8291 21.335L10.4043 21.0479C9.84423 21.3279 9.82931 21.3354 9.8291 21.3359L9.83008 21.3369L9.83301 21.3428C9.83471 21.3461 9.83735 21.3507 9.83984 21.3555C9.84481 21.365 9.85127 21.3777 9.85938 21.3926C9.87569 21.4225 9.89829 21.4632 9.92773 21.5127C9.98678 21.6119 10.0728 21.748 10.1885 21.9082C10.4195 22.228 10.7713 22.649 11.2617 23.0693C12.2507 23.917 13.794 24.75 16 24.75C18.206 24.75 19.7493 23.917 20.7383 23.0693C21.2287 22.649 21.5805 22.228 21.8115 21.9082C21.9272 21.748 22.0132 21.6119 22.0723 21.5127C22.1017 21.4632 22.1243 21.4225 22.1406 21.3926C22.1487 21.3777 22.1552 21.365 22.1602 21.3555C22.1626 21.3507 22.1653 21.3461 22.167 21.3428L22.1699 21.3369L22.1709 21.3359C22.1707 21.3354 22.1558 21.3279 21.5957 21.0479L22.1709 21.335C22.3558 20.9646 22.2053 20.5143 21.835 20.3291ZM20.8301 20.6621L20.8291 20.6641V20.665C20.8297 20.6639 20.8305 20.6623 20.8311 20.6611L20.8301 20.6621ZM9.375 13.4004C8.61561 13.4004 8 14.016 8 14.7754C8.00021 15.5346 8.61574 16.1504 9.375 16.1504C10.1343 16.1504 10.7498 15.5346 10.75 14.7754C10.75 14.016 10.1344 13.4004 9.375 13.4004ZM22.625 13.4004C21.8656 13.4004 21.25 14.016 21.25 14.7754C21.2502 15.5346 21.8657 16.1504 22.625 16.1504C23.3843 16.1504 23.9998 15.5346 24 14.7754C24 14.016 23.3844 13.4004 22.625 13.4004Z"
      fill="currentColor"
    />
  </g>
  <defs>
    <clipPath id="clip0_6205_239"><path fill="currentColor" d="M0 0H32V32H0z" /></clipPath>
  </defs>
</svg>

<svg xmlns="http://www.w3.org/2000/svg" width="32" height="32" fill="none" data-fui-icon="true" viewBox="0 0 32 32"><g clip-path="url(#a)"><path fill="currentColor" d="M16 0c8.914 0 16 7.086 16 16s-7.086 16-16 16S0 24.914 0 16 7.086 0 16 0m5.835 20.33a.75.75 0 0 0-1.004.331v.001l-.002.003v.001l-.006.009q-.01.021-.04.07a4 4 0 0 1-.188.284 5.2 5.2 0 0 1-.833.902C19 22.583 17.794 23.25 16 23.25s-3-.667-3.762-1.32a5.2 5.2 0 0 1-.833-.9 4 4 0 0 1-.228-.355l-.006-.01h-.001l-.001-.003a.75.75 0 0 0-1.34.673l.575-.287-.575.288h.001l.003.007.007.012.02.038q.024.045.068.12c.059.099.145.235.26.395.231.32.583.741 1.074 1.161.989.848 2.532 1.681 4.738 1.681s3.75-.833 4.738-1.68c.49-.421.843-.842 1.073-1.162a5 5 0 0 0 .33-.515l.02-.038.006-.012.003-.006v-.001l-.574-.288.575.287a.75.75 0 0 0-.336-1.006m-1.005.332v.003l.001-.004zM9.375 13.4a1.375 1.375 0 1 0 0 2.75 1.375 1.375 0 0 0 0-2.75m13.25 0a1.375 1.375 0 1 0 0 2.75 1.375 1.375 0 0 0 0-2.75"/></g><defs><clipPath id="a"><path fill="currentColor" d="M0 0h32v32H0z"/></clipPath></defs></svg>
